assets/svg/wallet_login_cloud.svg

<svg width="48" height="48" viewBox="0 0 48 48" fill="none" xmlns="http://www.w3.org/2000/svg">
<path d="M27.254 11.3237C27.2643 11.3199 27.2747 11.3152 27.285 11.3115C27.6515 11.1643 27.7997 10.7209 27.6 10.3796C25.9959 7.64117 23.0231 5.80273 19.62 5.80273C18.0984 5.80273 16.6622 6.17117 15.3965 6.82273C15.1134 6.96898 15.2493 7.39555 15.5653 7.35617C15.9412 7.3093 16.3237 7.28586 16.7128 7.28586C19.5018 7.28586 22.0022 8.52148 23.6962 10.4752C24.5793 11.4915 26.0043 11.8299 27.254 11.3237ZM39.2831 19.8812C38.8453 17.454 37.3312 15.279 35.0681 14.0612V14.6837C35.0681 14.8618 34.935 15.0202 34.7578 15.0296C34.7132 15.032 34.6686 15.0253 34.6267 15.0099C34.5848 14.9945 34.5465 14.9708 34.5142 14.94C34.4818 14.9093 34.456 14.8723 34.4384 14.8313C34.4208 14.7903 34.4118 14.7461 34.4118 14.7015V13.8062C34.4118 13.7687 34.3893 13.734 34.3547 13.7199C34.2321 13.6678 34.1084 13.6187 33.9834 13.5727C32.7037 13.104 31.3828 12.9709 30.1181 13.1284C29.835 13.164 29.8181 13.5652 30.0956 13.629C30.4265 13.7059 30.7556 13.8034 31.0828 13.9234C33.4284 14.783 35.1497 16.5924 35.9728 18.758C36.4012 19.8859 37.4962 20.6096 38.7018 20.5693C38.7122 20.5693 38.7215 20.5684 38.7318 20.5684C39.0853 20.5571 39.3459 20.229 39.2831 19.8812Z" fill="#E1EAF8"/>
<path d="M40.5165 22.0973C40.8202 22.0448 41.1277 22.0185 41.438 22.0185C44.4155 22.0185 46.838 24.441 46.838 27.4204C46.838 30.3979 44.4155 32.8204 41.438 32.8204H35.379C35.198 32.8204 35.0509 32.6732 35.0509 32.4923C35.0509 32.3113 35.198 32.1641 35.379 32.1641H41.438C44.0537 32.1641 46.1818 30.036 46.1818 27.4204C46.1818 24.8048 44.0537 22.6766 41.438 22.6766C41.078 22.6766 40.7218 22.7188 40.3749 22.7985C40.1716 23.6356 39.8476 24.4387 39.413 25.1826C39.3521 25.2866 39.2424 25.3448 39.1299 25.3448C39.0737 25.3448 39.0174 25.3307 38.9649 25.2998C38.8899 25.2557 38.8355 25.1836 38.8135 25.0995C38.7915 25.0153 38.8038 24.9258 38.8477 24.8507C39.5855 23.5888 39.9755 22.1451 39.9755 20.6751C39.9755 17.571 38.2599 14.8616 35.7268 13.4432V15.2938C35.7268 15.6885 35.573 16.0588 35.2937 16.3382L33.6521 17.9797C33.5227 18.1091 33.3125 18.1075 33.1851 17.9762C33.0603 17.8476 33.0619 17.6428 33.1885 17.5161L34.8305 15.8741C34.9852 15.7195 35.0705 15.5132 35.0705 15.2938V13.1132C34.0384 12.6501 32.8955 12.3923 31.6927 12.3923C29.8121 12.3923 28.0402 13.0063 26.5674 14.1679C26.4249 14.2804 26.2187 14.256 26.1062 14.1135C25.9937 13.971 26.018 13.7648 26.1605 13.6523C27.0127 12.9801 27.9587 12.4795 28.9655 12.1579C28.4799 10.1976 27.3596 8.42102 25.7846 7.13195C24.1084 5.75852 21.9896 5.00289 19.8193 5.00289C17.0602 5.00289 14.5749 6.19539 12.8499 8.09102V9.27133C12.8499 9.83008 13.3046 10.2848 13.8634 10.2848H16.6215C17.5421 10.2848 18.2912 11.0338 18.2912 11.9545V13.7479C18.2912 13.9291 18.1443 14.076 17.963 14.076C17.7818 14.076 17.6349 13.9291 17.6349 13.7479V11.9545C17.6349 11.3957 17.1802 10.941 16.6215 10.941H13.8634C12.9427 10.941 12.1937 10.192 12.1937 9.27133V8.89727C11.064 10.4516 10.3965 12.3623 10.3965 14.4257C10.3965 17.2316 11.634 19.8716 13.7912 21.6688C13.8243 21.6964 13.8518 21.7302 13.8718 21.7683C13.8919 21.8065 13.9043 21.8482 13.9082 21.8912C13.9121 21.9341 13.9075 21.9774 13.8947 22.0185C13.8818 22.0597 13.861 22.0979 13.8334 22.131C13.7687 22.2088 13.6749 22.2491 13.5812 22.2491C13.5071 22.2491 13.4321 22.2248 13.3712 22.1732C12.0193 21.0463 11.0059 19.6101 10.3974 18.0107C9.92867 17.916 9.44867 17.8673 8.9668 17.8673C5.94242 17.8673 3.35305 19.7554 2.31055 22.4141L4.71523 25.1479C4.9843 25.4545 5.37336 25.6298 5.78117 25.6298H6.79367C6.97489 25.6298 7.1218 25.7767 7.1218 25.9579C7.1218 26.1391 6.97489 26.286 6.79367 26.286H5.78117C5.18398 26.286 4.61586 26.0291 4.22211 25.581L2.07055 23.1351C1.90742 23.7341 1.81836 24.3641 1.81836 25.0148C1.81836 28.957 5.02555 32.1632 8.9668 32.1632H12.5237C12.7046 32.1632 12.8518 32.3104 12.8518 32.4913C12.8518 32.6723 12.7046 32.8195 12.5237 32.8195H8.9668C4.66273 32.8195 1.16211 29.3179 1.16211 25.0148C1.16211 20.7107 4.66367 17.2101 8.9668 17.2101C9.3654 17.2103 9.76341 17.2407 10.1574 17.301C9.88019 16.3674 9.73936 15.3987 9.7393 14.4248C9.7393 8.86727 14.2609 4.3457 19.8184 4.3457C22.1405 4.3457 24.4065 5.15477 26.1999 6.62289C27.879 7.9982 29.0752 9.89008 29.5974 11.9807C30.2752 11.8195 30.9765 11.7351 31.6918 11.7351C36.6212 11.7351 40.6309 15.7457 40.6309 20.6741C40.6309 21.1523 40.5915 21.6285 40.5165 22.0973Z" fill="#9A9A9A"/>
<path d="M24 23.4199C19.0296 23.4199 15 27.4496 15 32.4199C15 37.3903 19.0296 41.4199 24 41.4199C28.9704 41.4199 33 37.3903 33 32.4199C33 27.4496 28.9704 23.4199 24 23.4199ZM28.5132 31.5017H26.4273V38.2097C26.4273 38.3994 26.2733 38.5534 26.0836 38.5534H21.9156C21.7259 38.5534 21.572 38.3994 21.572 38.2097V31.5017H19.486C19.1805 31.5017 19.0273 31.1317 19.2434 30.9155L23.7559 26.4031C23.8203 26.3389 23.9075 26.3028 23.9984 26.3028C24.0894 26.3028 24.1766 26.3389 24.241 26.4031L28.7535 30.9155C28.9719 31.1324 28.8188 31.5017 28.5132 31.5017Z" fill="#0166FF"/>
</svg>

<svg xmlns="http://www.w3.org/2000/svg" width="48" height="48" fill="none"><path fill="#E1EAF8" d="M27.254 11.324q.015-.007.031-.012a.65.65 0 0 0 .315-.932 9.24 9.24 0 0 0-7.98-4.577 9.2 9.2 0 0 0-4.224 1.02c-.283.146-.147.573.17.533q.563-.07 1.147-.07a9.22 9.22 0 0 1 6.983 3.19 3.14 3.14 0 0 0 3.558.848m12.03 8.557a8.28 8.28 0 0 0-4.216-5.82v.623c0 .178-.133.336-.31.346a.33.33 0 0 1-.346-.328v-.896a.09.09 0 0 0-.057-.086 8.248 8.248 0 0 0-4.237-.592c-.283.036-.3.437-.022.501q.496.115.987.294a8.26 8.26 0 0 1 4.89 4.835 2.81 2.81 0 0 0 2.729 1.811h.03a.584.584 0 0 0 .551-.688"/><path fill="#9A9A9A" d="M40.517 22.097a5.403 5.403 0 0 1 6.321 5.323c0 2.978-2.422 5.4-5.4 5.4h-6.059a.328.328 0 0 1 0-.656h6.059a4.75 4.75 0 0 0 4.744-4.744 4.75 4.75 0 0 0-4.744-4.743q-.541.001-1.063.122a8.9 8.9 0 0 1-.962 2.384.328.328 0 1 1-.565-.332 8.287 8.287 0 0 0-3.12-11.407v1.85c-.001.394-.155.765-.434 1.044l-1.642 1.642a.328.328 0 1 1-.464-.464l1.642-1.642a.82.82 0 0 0 .24-.58v-2.18a8.2 8.2 0 0 0-3.377-.722c-1.88 0-3.653.614-5.126 1.776a.328.328 0 1 1-.407-.516 8.9 8.9 0 0 1 2.805-1.494 9.46 9.46 0 0 0-3.18-5.026 9.44 9.44 0 0 0-5.966-2.13 9.4 9.4 0 0 0-6.97 3.089v1.18c0 .56.456 1.014 1.014 1.014h2.759c.92 0 1.67.749 1.67 1.67v1.793a.328.328 0 0 1-.657 0v-1.793c0-.56-.455-1.014-1.014-1.014h-2.758c-.92 0-1.67-.749-1.67-1.67v-.374a9.37 9.37 0 0 0-1.796 5.529 9.4 9.4 0 0 0 3.394 7.243.329.329 0 1 1-.42.504 10.1 10.1 0 0 1-2.974-4.162 7.2 7.2 0 0 0-1.43-.144c-3.025 0-5.614 1.888-6.656 4.547l2.404 2.734c.27.306.658.482 1.066.482h1.013a.328.328 0 1 1 0 .656H5.78a2.08 2.08 0 0 1-1.559-.705l-2.151-2.446a7.1 7.1 0 0 0-.253 1.88c0 3.942 3.208 7.148 7.149 7.148h3.557a.328.328 0 0 1 0 .657H8.967c-4.304 0-7.805-3.502-7.805-7.805 0-4.304 3.502-7.805 7.805-7.805q.598 0 1.19.091a10.1 10.1 0 0 1-.418-2.876c0-5.558 4.522-10.08 10.08-10.08a10.1 10.1 0 0 1 6.38 2.278 10.12 10.12 0 0 1 3.398 5.358 9 9 0 0 1 2.095-.246c4.93 0 8.939 4.01 8.939 8.94q-.002.717-.114 1.422"/><path fill="#0166FF" d="M24 23.42a9 9 0 1 0 0 18 9 9 0 0 0 0-18m4.513 8.082h-2.086v6.708c0 .19-.154.343-.343.343h-4.168a.344.344 0 0 1-.344-.343v-6.708h-2.086a.343.343 0 0 1-.243-.586l4.513-4.513a.344.344 0 0 1 .485 0l4.512 4.513a.342.342 0 0 1-.24.586"/></svg>
